www/assets/icons/note.svg

<svg xmlns="http://www.w3.org/2000/svg" width="24" height="24" viewBox="0 0 24 24" fill='currentColor'><path d="m22 10-6-6H4c-1.1 0-2 .9-2 2v12.01c0 1.1.9 1.99 2 1.99l16-.01c1.1 0 2-.89 2-1.99zm-7-4.5 5.5 5.5H15z"/></svg>

<svg width="24" height="24" viewBox="0 0 24 24" xmlns="http://www.w3.org/2000/svg" fill='currentColor'><path d="M22 10L16 4H4C2.9 4 2 4.9 2 6V18.01C2 19.11 2.9 20 4 20L20 19.99C21.1 19.99 22 19.1 22 18V10ZM15 5.5L20.5 11H15V5.5Z"/></svg>
